X:1
T:Title
%%score { ( 1 3 ) | ( 2 4 ) }
L:1/8
M:4/4
K:Gb
V:1 treble nm="Grand Piano"
V:3 treble 
V:2 bass 
V:4 bass 
V:1
 z4 z[Q:1/4=86] DBc | B6 z2 | G6 z2 | z FFF Fced | B6 z2 | B6 z2 | G6 z2 | %7
 d[EGc][CEG][EGc] [DGB]2 [CFA]2 | %8
[M:11/16] [B,G]/-[B,G]/-[B,G]/-[B,G]/-[B,G]/-[B,G]/-[B,G]/-[B,G]-<[B,G] |[M:3/8] GFG | %10
[M:4/4] z FFF Fd=cc | d6 z2 | A6 z2 |[M:17/16] DD z A,D3/2DBc |[M:4/4] B6 z2 | G6 z2 | %16
 d[EGc][CEG][EGc] [DGB]2 [CFA]2 | %17
[M:11/16] [B,G]/-[B,G]/-[B,G]/-[B,G]/-[B,G]/-[B,G]/-[B,G]/-[B,G]-<[B,G] |] %18
V:2
 z4 z B,DE | D6 z2 | B,6 z2 | C6 z2 | D6 z2 | D6 z2 | B,6 z2 | B,C,C,C, D,2 D,2 | %8
[M:11/16] G,G,G,G,G,3/2 |[M:3/8] B,A,B, |[M:4/4] C6 z2 | F,6 z2 | F,4 z4 | %13
[M:17/16] z [D,F,][D,F,]D,[D,C]3/2CDE |[M:4/4] D6 z2 | B,6 z2 | B,C,C,C, D,2 D,2 | %17
[M:11/16] G,G,G,G,G,3/2 |] %18
V:3
 x8 | z GGG GADA | z DDD DGFG | A6 z2 | z GGG GDBc | z GGG GADA | z DDD DB__B_B | x8 | %8
[M:11/16] DDDDD3/2 |[M:3/8] x3 |[M:4/4] A6 z2 | z FFF Fd=cB | z DDD D=G_GE | %13
[M:17/16] z/ z/ z D-<D z/ z/ z/ z/ z/ z/ z/ z |[M:4/4] z GGG GADA | z DDD DB__B_B | x8 | %17
[M:11/16] DDDDD3/2 |] %18
V:4
 x8 | z G,G,G, G,CCC | z G,G,G, G,B,A,B, | z D,D,D, D,ECB, | z G,G,G, G,B,DE | z G,G,G, G,CCC | %6
 z G,G,G, G,D=CD | x8 |[M:11/16] x11/2 |[M:3/8] x3 |[M:4/4] z D,D,D, D,CA,A, | z D,D,D, D,F,G,G, | %12
 z A,,A,,A,, [A,,F,]_F,E,G, |[M:17/16] x17/2 |[M:4/4] z G,G,G, G,CCC | z G,G,G, G,D=CD | x8 | %17
[M:11/16] x11/2 |] %18

